app/assets/images/heroicons/micro/funnel.svg

<svg width="16" height="16" viewBox="0 0 16 16" fill="none" xmlns="http://www.w3.org/2000/svg">
<path d="M14 2C14 1.44772 13.5523 1 13 1H3C2.44772 1 2 1.44772 2 2V4.17157C2 4.70201 2.21071 5.21071 2.58579 5.58579L5.41421 8.41421C5.78929 8.78929 6 9.29799 6 9.82843V14.191C6 14.5627 6.39116 14.8044 6.72361 14.6382L8.89443 13.5528C9.572 13.214 10 12.5215 10 11.7639V9.82843C10 9.29799 10.2107 8.78929 10.5858 8.41421L13.4142 5.58579C13.7893 5.21071 14 4.70201 14 4.17157V2Z" fill="black"/>
</svg>

<svg xmlns="http://www.w3.org/2000/svg" viewBox="0 0 16 16" fill="currentColor" aria-hidden="true" data-slot="icon">
  <path d="M14 2a1 1 0 0 0-1-1H3a1 1 0 0 0-1 1v2.172a2 2 0 0 0 .586 1.414l2.828 2.828A2 2 0 0 1 6 9.828v4.363a.5.5 0 0 0 .724.447l2.17-1.085A2 2 0 0 0 10 11.763V9.829a2 2 0 0 1 .586-1.414l2.828-2.828A2 2 0 0 0 14 4.172V2Z"/>
</svg>
